src/media/icons/logo_icon.svg

<svg width="28" height="35" viewBox="0 0 28 35" fill="none" xmlns="http://www.w3.org/2000/svg">
<path fill-rule="evenodd" clip-rule="evenodd" d="M27.2447 0.844849C12.8321 0.844849 13.3683 15.391 13.3683 15.391C2.10937 15.7979 -1.30428 24.3151 2.10937 30.5231C4.18111 34.2906 9.37412 35.837 13.3683 34.1982C18.1369 32.2415 19.7088 27.5571 19.7088 21.7051C19.7088 21.7051 24.5743 21.9859 27.2447 23.2317V16.9608C25.1874 15.7697 19.7088 15.391 19.7088 15.391C19.7088 14.1942 19.7088 7.4824 27.2447 7.4824V0.844849ZM13.5172 22.0869C13.5172 22.0869 9.57177 21.8051 7.81535 23.5637C7.73705 23.6421 7.66313 23.7249 7.59336 23.8116C5.50496 26.4069 9.56635 30.3217 11.9204 27.9647C13.5906 26.2924 13.5172 22.0869 13.5172 22.0869Z" fill="url(#paint0_linear)"/>
<mask id="mask0" mask-type="alpha" maskUnits="userSpaceOnUse" x="0" y="0" width="28" height="35">
<path fill-rule="evenodd" clip-rule="evenodd" d="M27.2447 0.844849C12.8321 0.844849 13.3683 15.391 13.3683 15.391C2.10937 15.7979 -1.30428 24.3151 2.10937 30.5231C4.18111 34.2906 9.37412 35.837 13.3683 34.1982C18.1369 32.2415 19.7088 27.5571 19.7088 21.7051C19.7088 21.7051 24.5743 21.9859 27.2447 23.2317V16.9608C25.1874 15.7697 19.7088 15.391 19.7088 15.391C19.7088 14.1942 19.7088 7.4824 27.2447 7.4824V0.844849ZM13.5172 22.0869C13.5172 22.0869 9.57177 21.8051 7.81535 23.5637C7.73705 23.6421 7.66313 23.7249 7.59336 23.8116C5.50496 26.4069 9.56635 30.3217 11.9204 27.9647C13.5906 26.2924 13.5172 22.0869 13.5172 22.0869Z" fill="white"/>
</mask>
<g mask="url(#mask0)">
<path fill-rule="evenodd" clip-rule="evenodd" d="M13.3685 15.391C14.7332 15.3005 18.179 15.3005 19.709 15.391C19.9337 15.4043 21.3222 14.8455 23.8683 15.391C24.8295 15.5969 27.2449 16.9607 27.2449 16.9607V23.2317C27.2449 23.2317 20.0986 21.7051 19.709 21.7051C17.8175 21.7051 15.7611 21.8531 13.5205 22.0869C13.3369 22.1061 10.0368 22.0602 6.88225 23.7291C4.33909 25.0745 1.96086 28.2536 0.844939 27.9364C-1.65518 27.2259 2.94687 19.1916 2.94687 19.1916C2.94687 19.1916 5.57205 16.8713 6.88225 16.3773C10.4517 15.0313 13.0484 15.4122 13.3685 15.391Z" fill="url(#paint1_linear)"/>
</g>
<defs>
<linearGradient id="paint0_linear" x1="16.0323" y1="-2.50227" x2="-6.65225" y2="6.87221" gradientUnits="userSpaceOnUse">
<stop stop-color="#7332F0"/>
<stop offset="1" stop-color="#2745F3"/>
</linearGradient>
<linearGradient id="paint1_linear" x1="21.5527" y1="15.2334" x2="5.36592" y2="31.8049" gradientUnits="userSpaceOnUse">
<stop stop-color="#2C43F2"/>
<stop offset="1" stop-color="#2B44F3"/>
</linearGradient>
</defs>
</svg>

<svg xmlns="http://www.w3.org/2000/svg" xmlns:xlink="http://www.w3.org/1999/xlink" width="142" height="36" viewBox="0 0 142 36">
    <defs>
        <linearGradient id="ynsyb0nheb" x1="67.114%" x2="19.86%" y1="29.352%" y2="71.078%">
            <stop offset="0%" stop-color="#7332F0"/>
            <stop offset="100%" stop-color="#2745F3"/>
        </linearGradient>
        <linearGradient id="y910jc592c" x1="102.858%" x2="4.137%" y1="50%" y2="60.457%">
            <stop offset="0%" stop-color="#2C43F2"/>
            <stop offset="100%" stop-color="#2B44F3"/>
        </linearGradient>
        <path id="wthta7ba6a" d="M27.245.845v6.637c-7.536 0-7.536 6.712-7.536 7.909 0 0 5.478.379 7.536 1.57v6.27c-2.67-1.245-7.536-1.526-7.536-1.526 0 5.852-1.572 10.536-6.34 12.493-3.995 1.639-9.188.093-11.26-3.675-3.413-6.208 0-14.725 11.26-15.132l-.001-.017c-.015-.559-.248-14.53 13.877-14.53zM13.517 22.087c-2.63-.188-4.53.304-5.702 1.477-.194.195-.369.41-.523.646-.775 1.188-.611 2.755.392 3.757 1.17 1.17 3.067 1.168 4.236-.002l.142-.15c1.017-1.137 1.502-3.046 1.455-5.728z"/>
    </defs>
    <g fill="none" fill-rule="evenodd">
        <g>
            <g>
                <g transform="translate(-70 -60) translate(70 60)">
                    <mask id="8lbu768fwd" fill="#fff">
                        <use xlink:href="#wthta7ba6a"/>
                    </mask>
                    <use fill="url(#ynsyb0nheb)" xlink:href="#wthta7ba6a"/>
                    <path fill="url(#y910jc592c)" d="M13.368 15.391c1.365-.09 4.81-.09 6.34 0 .226.013 1.614-.545 4.16 0 .64.137 1.766.66 3.377 1.57v6.27c-4.764-1.017-7.276-1.526-7.536-1.526-1.892 0-3.948.148-6.189.382-.183.019-3.483-.027-6.638 1.642-2.543 1.345-4.921 4.525-6.037 4.207-1.667-.473-.966-3.388 2.102-8.744 1.75-1.547 3.062-2.485 3.935-2.815 3.57-1.346 6.166-.965 6.486-.986z" mask="url(#8lbu768fwd)"/>
                </g>
            </g>
        </g>
    </g>
</svg>
